assets/images/payments/ukash-dark.svg

<svg width="100" height="60" viewBox="0 0 100 60" version="1.1" xmlns="http://www.w3.org/2000/svg" xmlns:xlink="http://www.w3.org/1999/xlink"><title>Ukash-dark</title><desc>Created with Sketch.</desc><g id="Dark-Payment-badges" stroke="none" stroke-width="1" fill="none" fill-rule="evenodd" transform="translate(-130.000000, -1189.000000)"><g id="Ukash-dark" transform="translate(130.000000, 1189.000000)"><rect id="Rectangle" fill="#000" x="0" y="0" width="100" height="60" rx="4"/><path d="M40.4193068,27.1848889 C40.6865874,31.7551111 39.1566366,35.6502222 36.0460439,38.9231111 C34.2826066,40.7773333 32.1597231,42.0575556 29.671249,42.6533333 C29.0353056,42.8057778 28.3747847,42.854 27.7265525,42.9488889 C27.6942945,42.952 27.6620365,42.9644444 27.6297785,42.9784444 L26.5913782,42.9784444 C26.3671083,42.9488889 26.1413023,42.924 25.9170324,42.8944444 C24.1397703,42.6844444 22.5253343,42.0497778 21.1136628,40.9344444 C18.7772621,39.0864444 17.5637469,36.5928889 17.129032,33.67 C17.0752687,33.3122222 17.0414746,32.9513333 17,32.592 L17,31.0364444 C17.0107527,31.0037778 17.0261136,30.9726667 17.0307219,30.9384444 C17.0829491,30.4733333 17.1044545,30.002 17.1858675,29.5415556 C17.8586772,25.6651111 19.6681973,22.4482222 22.6943048,19.9624444 C24.408587,18.5531111 26.3517473,17.6135556 28.542219,17.2371111 C28.9277789,17.1717778 29.3194832,17.1282222 29.7081153,17.0753333 L30.995363,17.0753333 C31.3778507,17.1297778 31.7634106,17.1686667 32.14129,17.2402222 C35.273388,17.8375556 37.5729225,19.5953333 39.0859762,22.4155556 C39.8832096,23.9011111 40.3194606,25.5017778 40.4193068,27.1848889 L40.4193068,27.1848889 Z M35.9692391,23.4484444 C35.8448154,23.4111111 35.7111751,23.394 35.5821432,23.394 C34.772621,23.3955556 33.9630989,23.408 33.1535767,23.4064444 C32.9723175,23.4064444 32.8970488,23.4717778 32.8601825,23.6475556 C32.3901374,25.9482222 31.9216284,28.2504444 31.4392945,30.5495556 C31.2549631,31.4237778 31.0737039,32.3042222 30.7004327,33.1224444 C30.4116468,33.7524444 29.993829,34.2595556 29.3348441,34.5162222 C28.6989007,34.762 28.0399159,34.8024444 27.3763228,34.6624444 C26.5376148,34.4913333 25.9078158,33.8971111 26.0138064,32.8393333 C26.0245591,32.7304444 26.023023,32.6137778 26.0445283,32.5048889 C26.1935295,31.7582222 26.3409947,31.01 26.5007486,30.2664444 C26.9231747,28.2971111 27.3532814,26.3308889 27.7741715,24.3615556 C27.9016674,23.7626667 27.6113454,23.4111111 27.0061239,23.408 C26.6036669,23.4048889 26.2042822,23.408 25.8018253,23.4064444 C25.3793991,23.4064444 24.9569729,23.4111111 24.5360829,23.4048889 C24.3640402,23.4017778 24.2949159,23.4702222 24.2595857,23.6382222 C23.8248708,25.6837778 23.3778671,27.7246667 22.9477605,29.7702222 C22.682016,31.0333333 22.3517555,32.2886667 22.3486833,33.5984444 C22.3471473,34.2424444 22.4592822,34.8537778 22.7741817,35.4137778 C23.3010623,36.3564444 24.1228733,36.9397778 25.1059742,37.3022222 C26.8586587,37.94 28.6466735,37.9182222 30.4408326,37.5184444 C31.834071,37.2104444 32.9415956,36.4637778 33.6835295,35.2068889 C34.0982752,34.5037778 34.3870611,33.7462222 34.5698564,32.9513333 C34.901653,31.5077778 35.2042637,30.0564444 35.5099467,28.6066667 C35.8202379,27.1351111 36.1213126,25.662 36.419315,24.1888889 C36.4884393,23.8186667 36.3256132,23.5542222 35.9692391,23.4484444 L35.9692391,23.4484444 Z" id="Shape" fill="#D22328"/><path d="M85.8523934,29.5975556 C85.8846514,30.4484444 85.6834229,31.2635556 85.5006276,32.0833333 C85.1765115,33.5642222 84.8431788,35.0435556 84.5190628,36.526 C84.377742,37.1591111 83.9967904,37.4826667 83.3454861,37.4873333 C82.6726764,37.492 82.0014028,37.4888889 81.3301292,37.4888889 C81.0014048,37.4888889 80.9768273,37.4468889 81.0428794,37.1155556 C81.4330476,35.2675556 81.8293601,33.4242222 82.2072395,31.5746667 C82.2763638,31.2355556 82.3132301,30.8777778 82.2825082,30.5355556 C82.2210644,29.9102222 81.795566,29.5602222 81.1719114,29.5415556 C80.2087797,29.5135556 79.4929594,29.9335556 79.1411936,30.8342222 C78.8923462,31.4657778 78.7356645,32.1408889 78.5881993,32.8066667 C78.3178466,34.0013333 78.0874323,35.2022222 77.8385849,36.4015556 C77.6819032,37.1311111 77.2379717,37.492 76.5067904,37.492 L74.6189295,37.492 C74.3301436,37.492 74.2917412,37.4406667 74.3516489,37.1528889 C74.88621,34.6048889 75.4161628,32.0631111 75.950724,29.5151111 C76.3562531,27.5784444 76.7633183,25.6417778 77.1565587,23.7035556 C77.2041776,23.478 77.2886628,23.408 77.5098605,23.4126667 C78.1934229,23.4266667 78.8815935,23.4157778 79.5651559,23.4173333 C80.1657691,23.4188889 80.4622354,23.7735556 80.3393478,24.3693333 C80.0812838,25.6153333 79.8170755,26.8597778 79.5559393,28.1057778 C79.5313618,28.2131111 79.5113925,28.322 79.4898872,28.4308889 C79.8984885,27.9455556 80.3869668,27.5924444 80.9599303,27.3591111 C82.0014028,26.9313333 83.0720611,26.7773333 84.1550082,27.1615556 C85.1918724,27.5271111 85.8124549,28.4511111 85.8523934,29.5975556 L85.8523934,29.5975556 Z" id="Path" fill="#FFF"/><path d="M63.941532,29.8106667 C63.8478302,31.2573333 63.5252502,32.662 63.1965258,34.062 C62.9983696,34.9144444 62.7725636,35.7591111 62.5513659,36.6037778 C62.4054368,37.1591111 62.0505989,37.4733333 61.4837797,37.4857778 C60.8078979,37.506 60.1274077,37.4935556 59.4515258,37.4888889 C59.2533696,37.4888889 59.2057506,37.4173333 59.2502974,37.2228889 C59.2994524,37.0128889 59.3532158,36.8028889 59.4100513,36.5975556 C58.6865505,37.4764444 57.7234188,37.7315556 56.6650492,37.7735556 C56.0383224,37.8 55.419276,37.7611111 54.8201989,37.5588889 C53.8155927,37.2213333 53.2487736,36.5088889 53.1013084,35.4526667 C53.0229676,34.902 53.0536895,34.3497778 53.2119073,33.8115556 C53.4761157,32.9217778 54.0997703,32.3835556 54.9154368,32.0397778 C55.7864028,31.6726667 56.709596,31.5451111 57.6404696,31.4564444 C58.2963823,31.3942222 58.9507588,31.3537778 59.6020632,31.2868889 C59.7802502,31.2651111 59.9630455,31.1951111 60.1304799,31.1204444 C60.6035972,30.8995556 60.8294032,30.4095556 60.71266,29.9008889 C60.6312469,29.54 60.3885439,29.3331111 60.0552112,29.2413333 C59.5052892,29.0888889 58.9430783,29.1044444 58.3993007,29.2802222 C57.952297,29.4233333 57.6850164,29.7515556 57.5851702,30.2073333 C57.5467678,30.3831111 57.4622826,30.4344444 57.2979204,30.4313333 C56.4254184,30.4266667 55.5529163,30.4297778 54.6819504,30.4282222 C54.4238864,30.4282222 54.3900923,30.3768889 54.4530722,30.1264444 C54.8263433,28.5568889 55.7833306,27.552 57.3363228,27.1864444 C58.9185008,26.8131111 60.5052871,26.8722222 62.0767125,27.2953333 C62.2748687,27.3497778 62.4699528,27.4337778 62.6527482,27.5255556 C63.5728692,27.9828889 64.0106563,28.7746667 63.941532,29.8106667 Z M60.1934598,32.8937778 C59.8662715,32.9715556 59.5636608,33.0571111 59.2549057,33.1115556 C58.921573,33.1691111 58.582096,33.1846667 58.2472272,33.2266667 C57.7695016,33.2826667 57.2979204,33.3433333 56.887783,33.6248889 C56.4638208,33.9173333 56.3409331,34.3451111 56.4085213,34.8351111 C56.4653568,35.2504444 56.7295652,35.5024444 57.1105168,35.602 C57.8416981,35.7964444 58.5298687,35.6984444 59.1258737,35.2084444 C59.8463023,34.6064444 60.0536751,33.7524444 60.1934598,32.8937778 Z" id="Path" fill="#FFF"/><path d="M50.4745857,34.7604444 C49.9707465,34.0402222 49.4684434,33.3215556 48.9507793,32.5842222 C49.026048,32.5142222 49.0844196,32.4535556 49.1458634,32.396 C50.8893314,30.8015556 52.6343355,29.2024444 54.3762674,27.6002222 C54.4392473,27.5395556 54.4638249,27.4291111 54.5022272,27.342 C54.417742,27.3108889 54.3378651,27.2548889 54.2503076,27.2548889 C53.110525,27.2486667 51.9676702,27.2471111 50.8263515,27.2564444 C50.7188249,27.2564444 50.5851846,27.3186667 50.5068437,27.3948889 C49.5805783,28.3095556 48.6635295,29.2335556 47.7434085,30.1544444 C47.5759742,30.3208889 47.4023954,30.4857778 47.1980947,30.6848889 C47.2242084,30.5464444 47.2364971,30.464 47.2533942,30.3831111 C47.6527789,28.4666667 48.0552358,26.5502222 48.4515484,24.6322222 C48.6051579,23.8933333 48.2272785,23.4251111 47.4838084,23.4173333 C46.8540094,23.4111111 46.2242104,23.4204444 45.5944114,23.4111111 C45.4177605,23.4095556 45.3547806,23.4811111 45.3209865,23.646 C44.3885767,28.1586667 43.4515587,32.6728889 42.5145406,37.1871111 C42.4638495,37.436 42.505324,37.4888889 42.7572436,37.4888889 C43.4423421,37.4904444 44.1274405,37.492 44.812539,37.4888889 C45.4530906,37.4857778 45.8509393,37.1544444 45.9830435,36.5197778 C46.072137,36.0982222 46.1550861,35.6704444 46.2411075,35.2457778 C46.3225205,34.8475556 46.4039336,34.4431111 46.4930271,34.0153333 C46.5421821,34.0853333 46.5744401,34.1242222 46.605162,34.174 C47.2841161,35.2208889 47.9646062,36.2708889 48.638952,37.3177778 C48.7142207,37.436 48.7987059,37.492 48.9400267,37.4904444 C49.9507773,37.4857778 50.9599918,37.4904444 51.9707424,37.4842222 C52.0521555,37.4842222 52.1857957,37.4515556 52.2011567,37.4002222 C52.2241981,37.3286667 52.1873318,37.2135556 52.1381768,37.142 C51.5882547,36.3471111 51.0306522,35.5568889 50.4745857,34.7604444 L50.4745857,34.7604444 Z" id="Path" fill="#FFF"/><path d="M72.4760767,27.3482222 C70.672701,26.7151111 68.8631809,26.8006667 67.1120324,27.5535556 C65.9061977,28.0746667 65.2548934,29.0266667 65.2395324,30.3908889 C65.2210993,31.6057778 65.6957527,32.3991111 66.8063495,32.8517778 C67.2886833,33.0493333 67.8078835,33.1613333 68.3117227,33.3106667 C68.8401395,33.4662222 69.3823811,33.5875556 69.9015812,33.7757778 C70.3455127,33.9375556 70.5098749,34.3155556 70.3962039,34.7791111 C70.3240074,35.0871111 70.1089541,35.2831111 69.8386013,35.4137778 C69.4161751,35.616 68.9660993,35.6331111 68.5190956,35.56 C67.7387592,35.4324444 67.4300041,35.1042222 67.3132609,34.3186667 C67.2917555,34.1693333 67.2257034,34.1133333 67.0874549,34.1164444 C66.6558121,34.1195556 66.2272416,34.1164444 65.798671,34.1164444 L64.5344647,34.1164444 C64.2825451,34.1164444 64.2456788,34.1584444 64.2656481,34.4166667 C64.2764007,34.5131111 64.2886895,34.6111111 64.2979061,34.7091111 C64.489918,36.1262222 65.2195632,37.0937778 66.5928322,37.5231111 C67.4422929,37.7875556 68.3086505,37.8124444 69.1826887,37.772 C70.0306132,37.7393333 70.8647129,37.6242222 71.657338,37.31 C72.6327584,36.9211111 73.3378261,36.2631111 73.6097149,35.21 C73.6895919,34.9004444 73.7433552,34.5768889 73.7525718,34.2595556 C73.7894381,32.7895556 73.3624036,31.9806667 72.0106399,31.5124444 C71.4100267,31.3024444 70.786372,31.1748889 70.1765422,30.996 C69.7664048,30.8762222 69.348587,30.7673333 68.961491,30.5868889 C68.4822293,30.3644444 68.4300021,29.8075556 68.817098,29.4404444 C68.9123359,29.3517778 69.0275431,29.2817778 69.1442863,29.2273333 C69.5221657,29.0531111 69.9215505,29.0188889 70.3255435,29.0733333 C70.9200123,29.1542222 71.2441284,29.4808889 71.2717781,30.03 C71.2825308,30.2337778 71.3608716,30.2944444 71.5528835,30.2928889 C72.3746944,30.2866667 73.1995775,30.2913333 74.0198523,30.2897778 C74.2840607,30.2897778 74.3086382,30.2648889 74.3086382,30.0035556 C74.3040299,28.7388889 73.6773031,27.7697778 72.4760767,27.3482222 L72.4760767,27.3482222 Z" id="Path" fill="#FFF"/></g></g></svg>

<svg width="100" height="60" xmlns="http://www.w3.org/2000/svg"><g fill="none" fill-rule="evenodd"><rect fill="#000" width="100" height="60" rx="4"/><path d="M40.42 27.185c.267 4.57-1.263 8.465-4.374 11.738-1.763 1.854-3.886 3.135-6.375 3.73-.636.153-1.296.201-1.944.296a.33.33 0 00-.097.03h-1.04c-.224-.03-.45-.055-.674-.085-1.777-.21-3.392-.844-4.803-1.96-2.337-1.848-3.55-4.341-3.985-7.264-.054-.358-.088-.719-.129-1.078v-1.556c.01-.032.026-.063.03-.098.053-.465.074-.936.156-1.396.673-3.877 2.482-7.094 5.508-9.58 1.715-1.409 3.658-2.348 5.848-2.725.386-.065.777-.109 1.166-.162h1.287c.383.055.768.094 1.146.165 3.132.598 5.432 2.355 6.945 5.176a11.414 11.414 0 011.333 4.769zm-4.45-3.737a1.361 1.361 0 00-.388-.054c-.81.002-1.619.014-2.428.012-.182 0-.257.066-.294.242-.47 2.3-.938 4.602-1.42 6.902-.185.874-.366 1.754-.74 2.572-.288.63-.706 1.138-1.365 1.394a3.397 3.397 0 01-1.959.146c-.838-.17-1.468-.765-1.362-1.823.01-.109.009-.225.03-.334.15-.747.297-1.495.457-2.239.422-1.969.852-3.935 1.273-5.904.128-.6-.163-.95-.768-.954-.402-.003-.802 0-1.204-.002-.423 0-.845.005-1.266-.001-.172-.003-.241.065-.276.233-.435 2.046-.882 4.087-1.312 6.132-.266 1.263-.596 2.519-.6 3.828 0 .644.111 1.256.426 1.816.527.942 1.349 1.526 2.332 1.888 1.753.638 3.54.616 5.335.216 1.393-.308 2.5-1.054 3.243-2.311a7.91 7.91 0 00.886-2.256c.332-1.443.634-2.895.94-4.344.31-1.472.611-2.945.91-4.418.068-.37-.094-.635-.45-.74z" fill="#D22328"/><path d="M85.852 29.598c.033.85-.169 1.666-.351 2.485-.324 1.481-.658 2.96-.982 4.443-.141.633-.522.957-1.174.961-.672.005-1.344.002-2.015.002-.329 0-.353-.042-.287-.373.39-1.848.786-3.692 1.164-5.541.07-.34.106-.697.076-1.04-.062-.625-.487-.975-1.111-.993-.963-.028-1.679.392-2.03 1.292-.25.632-.406 1.307-.554 1.973-.27 1.194-.5 2.395-.75 3.595-.156.73-.6 1.09-1.331 1.09h-1.888c-.289 0-.327-.051-.267-.34.534-2.547 1.064-5.089 1.599-7.637.405-1.937.812-3.873 1.206-5.811.047-.226.132-.296.353-.291.683.014 1.372.003 2.055.004.6.002.897.357.774.952-.258 1.246-.522 2.49-.783 3.737-.025.107-.045.216-.066.325a3.728 3.728 0 011.47-1.072c1.041-.428 2.112-.582 3.195-.197 1.037.365 1.657 1.29 1.697 2.436zm-21.91.212c-.094 1.447-.417 2.852-.745 4.252-.199.852-.424 1.697-.646 2.542-.146.555-.5.87-1.067.882-.676.02-1.357.008-2.032.003-.199 0-.246-.072-.202-.266.05-.21.103-.42.16-.625-.723.878-1.687 1.134-2.745 1.176-.627.026-1.246-.013-1.845-.215-1.004-.338-1.571-1.05-1.719-2.106a3.852 3.852 0 01.11-1.641c.265-.89.889-1.428 1.704-1.772.871-.367 1.795-.495 2.725-.584.656-.062 1.31-.102 1.962-.17.178-.02.361-.09.528-.166.474-.22.7-.71.583-1.22-.082-.36-.324-.567-.658-.659a2.847 2.847 0 00-1.656.04c-.447.142-.714.47-.814.926-.038.176-.123.227-.287.224-.873-.004-1.745-.001-2.616-.003-.258 0-.292-.051-.229-.302.373-1.57 1.33-2.574 2.883-2.94 1.583-.373 3.17-.314 4.74.11.199.054.394.138.577.23.92.457 1.358 1.249 1.289 2.285zm-3.749 3.084c-.327.078-.63.163-.938.218-.333.057-.673.073-1.008.115-.477.056-.95.116-1.36.398-.423.292-.546.72-.478 1.21.056.415.32.667.702.767.73.194 1.419.096 2.015-.394.72-.602.928-1.456 1.067-2.314zm-9.718 1.866l-1.524-2.176c.075-.07.133-.13.195-.188 1.743-1.594 3.488-3.194 5.23-4.796.063-.06.088-.17.126-.258-.084-.031-.164-.087-.252-.087-1.14-.006-2.282-.008-3.424.001a.51.51 0 00-.32.139c-.925.915-1.842 1.839-2.763 2.76-.167.166-.34.33-.545.53.026-.139.038-.221.055-.302.4-1.916.802-3.833 1.199-5.75.153-.74-.225-1.208-.968-1.216-.63-.006-1.26.003-1.89-.006-.176-.001-.24.07-.273.235-.932 4.513-1.87 9.027-2.806 13.541-.051.249-.01.302.242.302.685.001 1.37.003 2.056 0 .64-.003 1.038-.335 1.17-.97.09-.42.172-.849.258-1.273.082-.398.163-.803.252-1.23.05.07.081.108.112.158.68 1.047 1.36 2.097 2.034 3.144.075.118.16.174.301.172 1.01-.004 2.02 0 3.03-.006.082 0 .216-.032.231-.084.023-.071-.014-.186-.063-.258-.55-.795-1.107-1.585-1.663-2.382zm22.001-7.412c-1.803-.633-3.613-.547-5.364.206-1.206.52-1.857 1.473-1.872 2.837-.019 1.215.456 2.008 1.566 2.46.483.198 1.002.31 1.506.46.528.155 1.07.277 1.59.465.444.162.608.54.494 1.003-.072.308-.287.504-.557.635-.423.202-.873.22-1.32.146-.78-.128-1.089-.456-1.206-1.241-.021-.15-.087-.206-.226-.203-.431.004-.86 0-1.288 0h-1.265c-.251 0-.288.042-.268.3.01.097.023.195.032.293.192 1.417.922 2.385 2.295 2.814.85.265 1.716.29 2.59.249.848-.033 1.682-.148 2.474-.462.976-.389 1.68-1.047 1.953-2.1.08-.31.133-.633.143-.95.036-1.47-.39-2.28-1.742-2.748-.601-.21-1.225-.337-1.834-.516-.41-.12-.828-.229-1.216-.41-.479-.222-.531-.778-.144-1.146.095-.088.21-.158.327-.213.378-.174.778-.208 1.182-.154.594.081.918.408.946.957.01.204.089.264.28.263.823-.006 1.648-.002 2.468-.003.264 0 .289-.025.289-.286-.005-1.265-.632-2.234-1.833-2.656z" fill="#FFF"/></g></svg>
